svg/file_lock.svg

<?xml version="1.0" encoding="UTF-8"?><!DOCTYPE svg PUBLIC "-//W3C//DTD SVG 1.1//EN" "http://www.w3.org/Graphics/SVG/1.1/DTD/svg11.dtd"><svg xmlns="http://www.w3.org/2000/svg" xmlns:xlink="http://www.w3.org/1999/xlink" version="1.1" id="mdi-file-lock" width="24" height="24" viewBox="0 0 24 24"><path d="M6,2C4.89,2 4,2.9 4,4V20A2,2 0 0,0 6,22H18A2,2 0 0,0 20,20V8L14,2H6M13,3.5L18.5,9H13V3.5M12,11A3,3 0 0,1 15,14V15H16V19H8V15H9V14C9,12.36 10.34,11 12,11M12,13A1,1 0 0,0 11,14V15H13V14C13,13.47 12.55,13 12,13Z" /></svg>

<svg xmlns="http://www.w3.org/2000/svg" viewBox="0 0 24 24"><path d="M6 2a2 2 0 0 0-2 2v16a2 2 0 0 0 2 2h12a2 2 0 0 0 2-2V8l-6-6zm7 1.5L18.5 9H13zM12 11a3 3 0 0 1 3 3v1h1v4H8v-4h1v-1c0-1.64 1.34-3 3-3m0 2a1 1 0 0 0-1 1v1h2v-1c0-.53-.45-1-1-1"/></svg>
